X:1
T:Speed the Light
T:Elisha Albright Hoffman, 1899
T:Speed the Light
T:Public Domain
T:Public Domain
T:Public Domain
C:Elisha Albright Hoffman, 1899
Z:Public Domain
%%score ( 1 2 ) 3
L:1/8
M:4/4
K:Ab
V:1 treble 
V:2 treble 
V:3 bass 
V:1
 [CE]>[B,D] | [A,C]2 [CE]2 [CA]>[DB] [Ec]>[CA] | [DB]2 [DB]2 [DF]2 [EG]>[FA] | [GB]6 [Ac]>[Bd] | %4
w: 1.~To the|mil- lions liv- ing o’er the|deep, deep sea Speed the|light, speed the|
w: 2.~There in|an- guish mil- lions for the|Gos- pel wait, Speed the|light, speed the|
w: 3.~Je- sus|bids us bear to them the|Gos- pel news, Speed the|light, speed the|
w: 4.~We will|go, and in our bless- èd|mas- ter’s name Speed the|light, speed the|
 [Ac]6 [CE]>[B,D] | [A,C]2 [CE]2 [CA]>[DB] [Ec]>[CA] | [DB]2 [DB]2 [DF]2 [DB]>[Fd] | %7
w: light; To their|cry of pi- ty dare we|heed- less be? Speed the|
w: light; Go and|seek their res- cue ere it|is too late, Speed the|
w: light; Can the|souls He ran- somed His re-|quest re- fuse? Speed the|
w: light; We will|His sal- va- tion and His|love pro- claim, Speed the|
 [Ec]4- [Ec]3/2 | [CA]<[B,G] [DB]/ | (C>C D>D C2) ||"^Refrain" [ce]>[df] | %11
w: light, *|O speed the|light. * * * *||
w: light, *|O speed the|light. * * * *|the light,|
w: light, *|O speed the|light. * * * *||
w: light, *|O speed the|light. * * * *||
 [ce]4- [ce]>[Bd] [Ac]>[Bd] | [ce]2 [Gd]2 [Gd]2 [Bd]>[ce] | [Bd]4- [Bd]>[Ac] [GB]>[Ac] | %14
w: |||
w: the * bless- èd Gos-|pel light, To the lands|which * are in gloom|
w: |||
w: |||
 [Ad]2 [Ac]2 [Ac]2 [CA]>[DB] | [Ec]4- [Ec]>[EA] [FB]>[FA] | [EG]2 [DF]2 [DF]2 [DB]>[Fd] | %17
w: |||
w: and night; Souls are wait-|ing, * and the fields|are white, Speed the light,|
w: |||
w: |||
 [Ec]4- [Ec]>[CA] [B,G]>[DB] | (C>C D>D C2) |] %19
w: ||
w: O * speed the light.||
w: ||
w: ||
V:2
 x2 | x8 | x8 | x8 | x8 | x8 | x8 | x11/2 | x5/2 | A6 || x2 | x8 | x8 | x8 | x8 | x8 | x8 | x8 | %18
w: ||||||||||||||||||
w: |||||||||Speed|||||||||
 A6 |] %19
w: |
w: |
V:3
 [A,,E,]>[A,,E,] | [A,,E,]2 [A,,A,]2 [A,,A,]>[A,,A,] [A,,A,]>[A,,A,] | [D,F,]2 [D,F,]2 [D,A,]2 z2 | %3
w: ~ ~|~ ~ ~ ~ ~ ~|~ ~ ~|
 z2 [E,E]>[E,E] [E,E]2 z2 | z2 [A,E]>[A,E] [A,E]2 [A,,A,]>[A,,F,] | %5
w: Speed the light,|speed the light; ~ ~|
 [A,,E,]2 [A,,A,]2 [A,,A,]>[A,,A,] [A,,A,]>[A,,A,] | [D,F,]2 [D,F,]2 [D,A,]2 z2 | %7
w: ~ ~ ~ ~ ~ ~|~ ~ ~|
 z2 [E,A,]>[E,A,] [E,A,]3/2 | z/ z2 | z3/2 [A,,E,]/ [A,,F,]>[A,,F,] [A,,E,]2 || z2 | %11
w: Speed the light,||O speed the light!||
 z2 [A,E]>[A,E] [A,E]>[A,E] [A,E]>[A,E] | [A,E]2 [E,E]2 [E,B,]2 z2 | %13
w: Speed the light, ~ ~ ~|~ ~ ~|
 z2 [E,E]>[E,E] [E,E]>[E,E] [E,E]>[E,E] | [A,E]2 [A,E]2 [A,E]2 z2 | %15
w: To the lands ~ ~ ~|~ ~ ~|
 z2 [A,,A,]>[A,,A,] [A,,A,]>[C,A,] [D,A,]>[D,A,] | [D,A,]2 [D,A,]2 [D,A,]2 z2 | %17
w: Souls are wait- ing ~ ~|~ ~ ~|
 z2 [E,A,]>[E,A,] [E,A,]3/2 z/ z2 | z3/2 [A,,E,]/ [A,,F,]>[A,,F,] [A,,E,]2 |] %19
w: Speed the light!|O speed the light!|

